images/instagram.svg

<svg width="40" height="40" viewBox="0 0 40 40" fill="none" xmlns="http://www.w3.org/2000/svg">
<path d="M20 3.0769C15.4075 3.0769 14.83 3.09806 13.0256 3.17844C11.2211 3.26306 9.9921 3.54652 8.91537 3.96537C7.78595 4.39018 6.76294 5.05654 5.91787 5.91787C5.05707 6.76338 4.39078 7.78626 3.96537 8.91537C3.54652 9.98998 3.26094 11.2211 3.17844 13.0192C3.09806 14.8279 3.0769 15.4033 3.0769 20.0021C3.0769 24.5967 3.09806 25.1721 3.17844 26.9765C3.26306 28.7788 3.54652 30.0079 3.96537 31.0846C4.39902 32.1973 4.97652 33.1407 5.91787 34.0821C6.8571 35.0234 7.80056 35.6031 8.91325 36.0346C9.9921 36.4534 11.219 36.739 13.0213 36.8215C14.8279 36.9019 15.4032 36.9231 20 36.9231C24.5967 36.9231 25.17 36.9019 26.9765 36.8215C28.7767 36.7369 30.01 36.4534 31.0867 36.0346C32.2154 35.6096 33.2377 34.9432 34.0821 34.0821C35.0234 33.1407 35.6009 32.1973 36.0346 31.0846C36.4513 30.0079 36.7369 28.7788 36.8215 26.9765C36.9019 25.1721 36.9231 24.5967 36.9231 20C36.9231 15.4032 36.9019 14.8279 36.8215 13.0213C36.7369 11.2211 36.4513 9.98998 36.0346 8.91537C35.6092 7.78623 34.9429 6.76333 34.0821 5.91787C33.2373 5.05622 32.2142 4.38981 31.0846 3.96537C30.0057 3.54652 28.7746 3.26094 26.9744 3.17844C25.1679 3.09806 24.5946 3.0769 19.9958 3.0769H20.0021H20ZM18.4833 6.12729H20.0021C24.5206 6.12729 25.0557 6.1421 26.839 6.2246C28.489 6.29864 29.3859 6.57575 29.9825 6.80633C30.7715 7.11306 31.3363 7.48113 31.9286 8.07344C32.5209 8.66575 32.8869 9.22844 33.1936 10.0196C33.4263 10.614 33.7013 11.5109 33.7754 13.1609C33.8579 14.9442 33.8748 15.4794 33.8748 19.9958C33.8748 24.5121 33.8579 25.0494 33.7754 26.8327C33.7013 28.4827 33.4242 29.3775 33.1936 29.974C32.9223 30.7088 32.4893 31.3732 31.9265 31.9181C31.3342 32.5104 30.7715 32.8763 29.9804 33.1831C29.3881 33.4158 28.4911 33.6908 26.839 33.7669C25.0557 33.8473 24.5206 33.8663 20.0021 33.8663C15.4836 33.8663 14.9463 33.8473 13.1631 33.7669C11.5131 33.6908 10.6183 33.4158 10.0217 33.1831C9.28661 32.9121 8.62159 32.4799 8.07556 31.9181C7.51234 31.3724 7.07863 30.7073 6.80633 29.9719C6.57575 29.3775 6.29864 28.4806 6.2246 26.8306C6.14421 25.0473 6.12729 24.5121 6.12729 19.9915C6.12729 15.4731 6.14421 14.94 6.2246 13.1567C6.30075 11.5067 6.57575 10.6098 6.80844 10.0133C7.11517 9.22421 7.48325 8.6594 8.07556 8.0671C8.66787 7.47479 9.23056 7.10883 10.0217 6.8021C10.6183 6.5694 11.5131 6.2944 13.1631 6.21825C14.7242 6.14633 15.3292 6.12517 18.4833 6.12306V6.12729ZM29.0348 8.93652C28.7681 8.93652 28.504 8.98905 28.2576 9.0911C28.0113 9.19316 27.7874 9.34274 27.5988 9.53132C27.4102 9.71989 27.2607 9.94376 27.1586 10.1901C27.0565 10.4365 27.004 10.7006 27.004 10.9673C27.004 11.234 27.0565 11.498 27.1586 11.7444C27.2607 11.9908 27.4102 12.2147 27.5988 12.4033C27.7874 12.5918 28.0113 12.7414 28.2576 12.8435C28.504 12.9455 28.7681 12.9981 29.0348 12.9981C29.5734 12.9981 30.0899 12.7841 30.4708 12.4033C30.8516 12.0224 31.0656 11.5059 31.0656 10.9673C31.0656 10.4287 30.8516 9.91216 30.4708 9.53132C30.0899 9.15048 29.5734 8.93652 29.0348 8.93652ZM20.0021 11.31C18.8494 11.292 17.7046 11.5035 16.6344 11.9322C15.5642 12.3609 14.5899 12.9982 13.7684 13.807C12.9468 14.6159 12.2944 15.58 11.8491 16.6434C11.4037 17.7068 11.1744 18.8482 11.1744 20.001C11.1744 21.1539 11.4037 22.2953 11.8491 23.3587C12.2944 24.4221 12.9468 25.3862 13.7684 26.195C14.5899 27.0039 15.5642 27.6412 16.6344 28.0699C17.7046 28.4986 18.8494 28.7101 20.0021 28.6921C22.2836 28.6565 24.4597 27.7252 26.0605 26.0992C27.6614 24.4731 28.5586 22.2828 28.5586 20.001C28.5586 17.7192 27.6614 15.5289 26.0605 13.9029C24.4597 12.2769 22.2836 11.3456 20.0021 11.31ZM20.0021 14.3583C21.4984 14.3583 22.9334 14.9526 23.9914 16.0107C25.0494 17.0687 25.6438 18.5037 25.6438 20C25.6438 21.4963 25.0494 22.9313 23.9914 23.9893C22.9334 25.0473 21.4984 25.6417 20.0021 25.6417C18.5058 25.6417 17.0708 25.0473 16.0128 23.9893C14.9548 22.9313 14.3604 21.4963 14.3604 20C14.3604 18.5037 14.9548 17.0687 16.0128 16.0107C17.0708 14.9526 18.5058 14.3583 20.0021 14.3583Z" fill="white"/>
</svg>

<svg xmlns="http://www.w3.org/2000/svg" width="40" height="40" fill="none"><path fill="currentColor" d="M20 3.077c-4.592 0-5.17.021-6.974.101-1.805.085-3.034.369-4.11.787a8.286 8.286 0 0 0-2.998 1.953 8.307 8.307 0 0 0-1.953 2.997c-.418 1.075-.704 2.306-.787 4.104-.08 1.809-.101 2.384-.101 6.983 0 4.595.021 5.17.101 6.975.085 1.802.369 3.03.787 4.108a8.312 8.312 0 0 0 1.953 2.997 8.259 8.259 0 0 0 2.995 1.953c1.08.418 2.306.704 4.108.787 1.807.08 2.382.101 6.979.101 4.597 0 5.17-.021 6.977-.102 1.8-.084 3.033-.368 4.11-.786a8.284 8.284 0 0 0 2.995-1.953 8.313 8.313 0 0 0 1.953-2.997c.416-1.077.702-2.306.787-4.108.08-1.805.101-2.38.101-6.977s-.021-5.172-.102-6.979c-.084-1.8-.37-3.031-.786-4.106a8.306 8.306 0 0 0-1.953-2.997 8.273 8.273 0 0 0-2.997-1.953c-1.08-.418-2.31-.704-4.11-.787-1.807-.08-2.38-.101-6.98-.101h.007H20Zm-1.517 3.05h1.52c4.518 0 5.053.015 6.836.098 1.65.074 2.547.35 3.144.581a5.25 5.25 0 0 1 1.946 1.267 5.228 5.228 0 0 1 1.265 1.947c.232.594.507 1.49.581 3.14.083 1.784.1 2.32.1 6.836s-.017 5.053-.1 6.837c-.074 1.65-.35 2.545-.581 3.141a5.225 5.225 0 0 1-1.268 1.944 5.23 5.23 0 0 1-1.946 1.265c-.592.233-1.489.508-3.141.584-1.783.08-2.318.1-6.837.1-4.518 0-5.056-.02-6.839-.1-1.65-.076-2.545-.351-3.141-.584a5.243 5.243 0 0 1-1.946-1.265 5.247 5.247 0 0 1-1.27-1.946c-.23-.595-.507-1.491-.581-3.141-.08-1.784-.098-2.319-.098-6.84 0-4.518.017-5.051.098-6.834.076-1.65.35-2.547.583-3.144a5.25 5.25 0 0 1 1.268-1.946 5.229 5.229 0 0 1 1.946-1.265c.596-.233 1.491-.508 3.141-.584 1.561-.072 2.166-.093 5.32-.095v.004Zm10.552 2.81a2.031 2.031 0 1 0 0 4.062 2.031 2.031 0 0 0 0-4.062Zm-9.033 2.373a8.692 8.692 0 1 0-.271 17.381 8.692 8.692 0 0 0 .271-17.381Zm0 3.048a5.641 5.641 0 1 1 0 11.283 5.641 5.641 0 0 1 0-11.283Z"/></svg>
